cssgg/readme.svg

<svg
  width="24"
  height="24"
  viewBox="0 0 24 24"
  fill="none"
  xmlns="http://www.w3.org/2000/svg"
>
  <path
    fill-rule="evenodd"
    clip-rule="evenodd"
    d="M4 5.5H9C10.1046 5.5 11 6.39543 11 7.5V16.5C11 17.0523 10.5523 17.5 10 17.5H4C3.44772 17.5 3 17.0523 3 16.5V6.5C3 5.94772 3.44772 5.5 4 5.5ZM14 19.5C13.6494 19.5 13.3128 19.4398 13 19.3293V19.5C13 20.0523 12.5523 20.5 12 20.5C11.4477 20.5 11 20.0523 11 19.5V19.3293C10.6872 19.4398 10.3506 19.5 10 19.5H4C2.34315 19.5 1 18.1569 1 16.5V6.5C1 4.84315 2.34315 3.5 4 3.5H9C10.1947 3.5 11.2671 4.02376 12 4.85418C12.7329 4.02376 13.8053 3.5 15 3.5H20C21.6569 3.5 23 4.84315 23 6.5V16.5C23 18.1569 21.6569 19.5 20 19.5H14ZM13 7.5V16.5C13 17.0523 13.4477 17.5 14 17.5H20C20.5523 17.5 21 17.0523 21 16.5V6.5C21 5.94772 20.5523 5.5 20 5.5H15C13.8954 5.5 13 6.39543 13 7.5ZM5 7.5H9V9.5H5V7.5ZM15 7.5H19V9.5H15V7.5ZM19 10.5H15V12.5H19V10.5ZM5 10.5H9V12.5H5V10.5ZM19 13.5H15V15.5H19V13.5ZM5 13.5H9V15.5H5V13.5Z"
    fill="currentColor"
  />
</svg>

<svg viewBox="0 0 24 24" xmlns="http://www.w3.org/2000/svg"><path fill-rule="evenodd" d="M4 5.5h5c1.1 0 2 .89 2 2v9c0 .55-.45 1-1 1H4c-.56 0-1-.45-1-1v-10c0-.56.44-1 1-1Zm10 14c-.36 0-.69-.07-1-.18v.17c0 .55-.45 1-1 1 -.56 0-1-.45-1-1v-.18c-.32.11-.65.17-1 .17H4c-1.66 0-3-1.35-3-3v-10c0-1.66 1.34-3 3-3h5c1.19 0 2.26.52 3 1.35 .73-.84 1.8-1.36 3-1.36h5c1.65 0 3 1.34 3 3v10c0 1.65-1.35 3-3 3h-6Zm-1-12v9c0 .55.44 1 1 1h6c.55 0 1-.45 1-1v-10c0-.56-.45-1-1-1h-5c-1.11 0-2 .89-2 2Zm-8 0h4v2H5v-2Zm10 0h4v2h-4v-2Zm4 3h-4v2h4v-2Zm-14 0h4v2H5v-2Zm14 3h-4v2h4v-2Zm-14 0h4v2H5v-2Z"/></svg>
